src/assets/outline/WalletMoney.svg

<svg width="24" height="24" viewBox="0 0 24 24"  xmlns="http://www.w3.org/2000/svg">
<path d="M7.1698 22.75C4.7898 22.75 2.83984 21.02 2.83984 18.89V16.85C2.83984 16.44 3.17984 16.1 3.58984 16.1C3.99984 16.1 4.33984 16.44 4.33984 16.85C4.33984 18.1 5.5498 19.04 7.1698 19.04C8.7898 19.04 9.99982 18.1 9.99982 16.85C9.99982 16.44 10.3398 16.1 10.7498 16.1C11.1598 16.1 11.4998 16.44 11.4998 16.85V18.89C11.4998 21.02 9.5598 22.75 7.1698 22.75ZM4.59979 19.87C5.03979 20.69 6.0298 21.25 7.1698 21.25C8.3098 21.25 9.29981 20.68 9.73981 19.87C9.02981 20.3 8.1498 20.55 7.1698 20.55C6.1898 20.55 5.30979 20.3 4.59979 19.87Z" />
<path d="M7.1698 17.7999C5.5298 17.7999 4.05983 17.0499 3.32983 15.8599C3.00983 15.3399 2.83984 14.7299 2.83984 14.1099C2.83984 13.0599 3.29983 12.0799 4.13983 11.3499C5.75983 9.92992 8.54981 9.92997 10.1798 11.34C11.0198 12.08 11.4898 13.0599 11.4898 14.1099C11.4898 14.7299 11.3198 15.3399 10.9998 15.8599C10.2798 17.0499 8.8098 17.7999 7.1698 17.7999ZM7.1698 11.7499C6.3898 11.7499 5.66982 12.0099 5.12982 12.4799C4.61982 12.9199 4.33984 13.4999 4.33984 14.1099C4.33984 14.4599 4.4298 14.78 4.6098 15.08C5.0698 15.84 6.0498 16.3099 7.1698 16.3099C8.2898 16.3099 9.26979 15.84 9.71979 15.09C9.89979 14.8 9.98981 14.4699 9.98981 14.1199C9.98981 13.5099 9.70983 12.9299 9.19983 12.4799C8.66983 12.0099 7.9498 11.7499 7.1698 11.7499Z" />
<path d="M7.1698 20.55C4.6998 20.55 2.83984 18.96 2.83984 16.86V14.11C2.83984 11.98 4.7798 10.25 7.1698 10.25C8.2998 10.25 9.37982 10.64 10.1898 11.34C11.0298 12.08 11.4998 13.06 11.4998 14.11V16.86C11.4998 18.96 9.6398 20.55 7.1698 20.55ZM7.1698 11.75C5.6098 11.75 4.33984 12.81 4.33984 14.11V16.86C4.33984 18.11 5.5498 19.05 7.1698 19.05C8.7898 19.05 9.99982 18.11 9.99982 16.86V14.11C9.99982 13.5 9.71984 12.92 9.20984 12.47C8.66984 12.01 7.9498 11.75 7.1698 11.75Z" />
<path d="M19.0399 14.7999C17.5299 14.7999 16.2499 13.6799 16.1299 12.2399C16.0499 11.4099 16.3499 10.5999 16.9499 10.0099C17.4499 9.48995 18.1599 9.19995 18.9099 9.19995H20.9999C21.9899 9.22995 22.7499 10.0099 22.7499 10.9699V13.03C22.7499 13.99 21.9899 14.7699 21.0299 14.7999H19.0399ZM20.9699 10.7H18.9199C18.5699 10.7 18.2499 10.8299 18.0199 11.0699C17.7299 11.3499 17.5899 11.7299 17.6299 12.1099C17.6799 12.7699 18.3199 13.2999 19.0399 13.2999H20.9999C21.1299 13.2999 21.2499 13.18 21.2499 13.03V10.9699C21.2499 10.8199 21.1299 10.71 20.9699 10.7Z" />
<path d="M16.0002 21.25H13.5002C13.0902 21.25 12.7502 20.91 12.7502 20.5C12.7502 20.09 13.0902 19.75 13.5002 19.75H16.0002C18.5802 19.75 20.2502 18.08 20.2502 15.5V14.8H19.0402C17.5302 14.8 16.2502 13.68 16.1302 12.24C16.0502 11.41 16.3503 10.6 16.9503 10.01C17.4503 9.49001 18.1602 9.20001 18.9102 9.20001H20.2402V8.5C20.2402 6.16 18.8703 4.54998 16.6503 4.28998C16.4103 4.24998 16.2002 4.25 15.9902 4.25H6.99023C6.75023 4.25 6.52022 4.26999 6.29022 4.29999C4.09022 4.57999 2.74023 6.18 2.74023 8.5V10.5C2.74023 10.91 2.40023 11.25 1.99023 11.25C1.58023 11.25 1.24023 10.91 1.24023 10.5V8.5C1.24023 5.42 3.14027 3.19001 6.09027 2.82001C6.36027 2.78001 6.67023 2.75 6.99023 2.75H15.9902C16.2302 2.75 16.5402 2.76 16.8602 2.81C19.8102 3.15 21.7402 5.39 21.7402 8.5V9.95001C21.7402 10.36 21.4002 10.7 20.9902 10.7H18.9102C18.5602 10.7 18.2403 10.83 18.0103 11.07C17.7203 11.35 17.5802 11.73 17.6202 12.11C17.6702 12.77 18.3103 13.3 19.0303 13.3H21.0002C21.4102 13.3 21.7502 13.64 21.7502 14.05V15.5C21.7502 18.94 19.4402 21.25 16.0002 21.25Z" />
</svg>

<?xml version="1.0" encoding="UTF-8"?>
<svg width="24" height="24" viewBox="0 0 24 24" xmlns="http://www.w3.org/2000/svg">
 <path d="m7.1698 22.75c-2.38 0-4.33-1.73-4.33-3.86v-2.04c0-0.41 0.34-0.75 0.75-0.75s0.75 0.34 0.75 0.75c0 1.25 1.21 2.19 2.83 2.19s2.83-0.94 2.83-2.19c0-0.41 0.33998-0.75 0.74998-0.75s0.75 0.34 0.75 0.75v2.04c0 2.13-1.94 3.86-4.33 3.86zm-2.57-2.88c0.44 0.82 1.43 1.38 2.57 1.38s2.13-0.57 2.57-1.38c-0.71 0.43-1.59 0.68-2.57 0.68s-1.86-0.25-2.57-0.68z"/>
 <path d="m7.1698 17.8c-1.64 0-3.11-0.75-3.84-1.94-0.32-0.52-0.48999-1.13-0.48999-1.75 0-1.05 0.45999-2.03 1.3-2.76 1.62-1.42 4.41-1.4199 6.04-0.0099 0.84 0.74 1.31 1.7199 1.31 2.7699 0 0.62-0.17 1.23-0.49 1.75-0.72 1.19-2.19 1.94-3.83 1.94zm0-6.05c-0.78 0-1.5 0.26-2.04 0.73-0.51 0.44-0.78998 1.02-0.78998 1.63 0 0.35 0.08996 0.6701 0.26996 0.9701 0.46 0.76 1.44 1.2299 2.56 1.2299s2.1-0.4699 2.55-1.2199c0.18-0.29 0.27002-0.6201 0.27002-0.9701 0-0.61-0.27998-1.19-0.78998-1.64-0.53-0.47-1.25-0.73-2.03-0.73z"/>
 <path d="m7.1698 20.55c-2.47 0-4.33-1.59-4.33-3.69v-2.75c0-2.13 1.94-3.86 4.33-3.86 1.13 0 2.21 0.39 3.02 1.09 0.84 0.74 1.31 1.72 1.31 2.77v2.75c0 2.1-1.86 3.69-4.33 3.69zm0-8.8c-1.56 0-2.83 1.06-2.83 2.36v2.75c0 1.25 1.21 2.19 2.83 2.19s2.83-0.94 2.83-2.19v-2.75c0-0.61-0.27998-1.19-0.78998-1.64-0.54-0.46-1.26-0.72-2.04-0.72z"/>
 <path d="m19.04 14.8c-1.51 0-2.79-1.12-2.91-2.56-0.08-0.83 0.22-1.64 0.82-2.23 0.5-0.51995 1.21-0.80995 1.96-0.80995h2.09c0.99 0.03 1.75 0.80995 1.75 1.77v2.0601c0 0.96-0.76 1.7399-1.72 1.7699h-1.99zm1.93-4.0999h-2.05c-0.35 0-0.67 0.1299-0.9 0.3699-0.29 0.28-0.43 0.66-0.39 1.04 0.05 0.66 0.69 1.19 1.41 1.19h1.96c0.13 0 0.25-0.1199 0.25-0.2699v-2.0601c0-0.15-0.12-0.2599-0.28-0.2699z"/>
 <path d="m16 21.25h-2.5c-0.41 0-0.75-0.34-0.75-0.75s0.34-0.75 0.75-0.75h2.5c2.58 0 4.25-1.67 4.25-4.25v-0.7h-1.21c-1.51 0-2.79-1.12-2.91-2.56-0.08-0.83 0.2201-1.64 0.8201-2.23 0.5-0.51999 1.2099-0.80999 1.9599-0.80999h1.33v-0.70001c0-2.34-1.3699-3.95-3.5899-4.21-0.24-0.04-0.4501-0.03998-0.6601-0.03998h-9c-0.24 0-0.47001 0.01999-0.70001 0.04999-2.2 0.28-3.55 1.88-3.55 4.2v2c0 0.41-0.34 0.75-0.75 0.75s-0.75-0.34-0.75-0.75v-2c0-3.08 1.9-5.31 4.85-5.68 0.27-0.04 0.57996-0.07001 0.89996-0.07001h9c0.24 0 0.55 0.01 0.87 0.06 2.95 0.34 4.88 2.58 4.88 5.69v1.45c0 0.40999-0.34 0.74999-0.75 0.74999h-2.08c-0.35 0-0.6699 0.13-0.8999 0.37-0.29 0.28-0.4301 0.66-0.3901 1.04 0.05 0.66 0.6901 1.19 1.4101 1.19h1.9699c0.41 0 0.75 0.34 0.75 0.75v1.45c0 3.44-2.31 5.75-5.75 5.75z"/>
</svg>
